assets/icons/layers.svg

<svg width="18" height="18" viewBox="0 0 18 18" fill="none" xmlns="http://www.w3.org/2000/svg">
<path d="M9 9C8.52645 9 8.05289 8.91598 7.68375 8.74793L2.48062 6.37523C2.24262 6.26695 1.6875 5.9502 1.6875 5.35219C1.6875 4.75418 2.24262 4.43813 2.48133 4.32844L7.72945 1.93535C8.45262 1.60488 9.54387 1.60488 10.2674 1.93535L15.5187 4.32844C15.7574 4.43707 16.3125 4.75383 16.3125 5.35219C16.3125 5.95055 15.7574 6.26625 15.5187 6.37559L10.3155 8.74793C9.94711 8.91598 9.47355 9 9 9Z" fill="_COLOR_VAR_"/>
<path d="M15.5166 7.97379L14.9861 7.73438L13.623 8.35805L10.3184 9.86977C9.94922 10.0385 9.47461 10.1225 9.00211 10.1225C8.52961 10.1225 8.05535 10.0385 7.68656 9.86977L4.37941 8.35805L3.01605 7.73438L2.48098 7.97484C2.24262 8.08348 1.6875 8.40234 1.6875 9C1.6875 9.59766 2.24262 9.91688 2.48062 10.0255L7.68375 12.4031C8.05078 12.5719 8.52504 12.6562 9 12.6562C9.47496 12.6562 9.94711 12.5719 10.3163 12.4035L15.5148 10.0266C15.7542 9.91793 16.3125 9.60082 16.3125 9C16.3125 8.39918 15.7581 8.08348 15.5166 7.97379Z" fill="_COLOR_VAR_"/>
<path d="M15.5166 11.6297L14.9861 11.3906L13.623 12.0139L10.3184 13.5239C9.94922 13.692 9.47461 13.7763 9.00211 13.7763C8.52961 13.7763 8.05535 13.6923 7.68656 13.5239L4.37941 12.0122L3.01605 11.3906L2.48098 11.6311C2.24262 11.7397 1.6875 12.0586 1.6875 12.6562C1.6875 13.2539 2.24262 13.5728 2.48062 13.6811L7.68375 16.0573C8.05078 16.2253 8.5268 16.3125 9 16.3125C9.4732 16.3125 9.945 16.2253 10.3141 16.0569L15.5145 13.6814C15.7542 13.5731 16.3125 13.256 16.3125 12.6562C16.3125 12.0565 15.7581 11.7397 15.5166 11.6297Z" fill="_COLOR_VAR_"/>
</svg>

<svg xmlns="http://www.w3.org/2000/svg" width="18" height="18"><path d="M9 9c-.474 0-.947-.084-1.316-.252L2.48 6.375c-.238-.108-.793-.425-.793-1.023s.555-.914.793-1.024l5.25-2.393c.724-.33 1.815-.33 2.538 0l5.252 2.393c.238.11.793.426.793 1.024s-.555.914-.793 1.024l-5.203 2.372C9.947 8.916 9.474 9 9 9"/><path d="m15.517 7.974-.53-.24-1.364.624-3.305 1.512c-.369.169-.843.253-1.316.253-.472 0-.947-.084-1.315-.253L4.379 8.358l-1.363-.624-.535.24c-.238.11-.793.428-.793 1.026s.555.917.793 1.025l5.203 2.378c.367.169.841.253 1.316.253s.947-.084 1.316-.253l5.199-2.376c.24-.11.797-.426.797-1.027 0-.6-.554-.917-.795-1.026"/><path d="m15.517 11.63-.53-.24-1.364.624-3.305 1.51c-.369.168-.843.252-1.316.252-.472 0-.947-.084-1.315-.252l-3.308-1.512-1.363-.621-.535.24c-.238.109-.793.428-.793 1.025 0 .598.555.917.793 1.025l5.203 2.376c.367.168.843.256 1.316.256s.945-.088 1.314-.256l5.2-2.376c.24-.108.799-.425.799-1.025s-.555-.916-.796-1.026"/></svg>
